pix_core/e/backward.svg

<!DOCTYPE svg PUBLIC "-//W3C//DTD SVG 1.1//EN" "http://www.w3.org/Graphics/SVG/1.1/DTD/svg11.dtd" [
	<!ENTITY ns_flows "http://ns.adobe.com/Flows/1.0/">
]><svg xmlns="http://www.w3.org/2000/svg" width="16" height="16" viewBox="0 0 16 16" preserveAspectRatio="xMinYMid meet" overflow="visible"><path d="M16 8v6c0 1.1-.9 2-2 2h-6c-1.1 0-2-.9-2-2v-1h5c1.1 0 2-.9 2-2v-5h1c1.1 0 2 .9 2 2zm-4-6v8c0 1.1-.9 2-2 2h-8c-1.1 0-2-.9-2-2v-8c0-1.1.9-2 2-2h8c1.1 0 2 .9 2 2zm-2 1c0-.5-.5-1-1-1h-6c-.5 0-1 .5-1 1v6c0 .5.5 1 1 1h6c.5 0 1-.5 1-1v-6z" fill="#888"/></svg>

<?xml version="1.0" encoding="utf-8"?>
<!-- Generator: Adobe Illustrator 15.1.0, SVG Export Plug-In  -->
<!DOCTYPE svg PUBLIC "-//W3C//DTD SVG 1.1//EN" "http://www.w3.org/Graphics/SVG/1.1/DTD/svg11.dtd" [
	<!ENTITY ns_flows "http://ns.adobe.com/Flows/1.0/">
]>
<svg version="1.1"
	 xmlns="http://www.w3.org/2000/svg" xmlns:xlink="http://www.w3.org/1999/xlink" xmlns:a="http://ns.adobe.com/AdobeSVGViewerExtensions/3.0/"
	 x="0px" y="0px" width="16px" height="16px" viewBox="0 0 16 16" style="overflow:visible;enable-background:new 0 0 16 16;"
	 xml:space="preserve" preserveAspectRatio="xMinYMid meet">
<defs>
</defs>
<path style="fill:#29a1c4;" d="M16,8v6c0,1.1-0.9,2-2,2H8c-1.1,0-2-0.9-2-2v-1h5c1.1,0,2-0.9,2-2V6h1C15.1,6,16,6.9,16,8z M12,2v8
	c0,1.1-0.9,2-2,2H2c-1.1,0-2-0.9-2-2V2c0-1.1,0.9-2,2-2h8C11.1,0,12,0.9,12,2z M10,3c0-0.5-0.5-1-1-1H3C2.5,2,2,2.5,2,3v6
	c0,0.5,0.5,1,1,1h6c0.5,0,1-0.5,1-1V3z"/>
</svg>
